src/lib/packages/icons/src/assets/line/envelope-open.svg

<svg width="24" height="24" viewBox="0 0 24 24" fill="none" xmlns="http://www.w3.org/2000/svg">
<path d="M18 21.75H6C3.582 21.75 2.25 20.418 2.25 18V9.73199C2.25 8.64299 2.79102 7.632 3.69702 7.028L9.91992 2.88C11.1839 2.038 12.8161 2.038 14.0801 2.88L20.303 7.028C21.209 7.632 21.75 8.64299 21.75 9.73199V18C21.75 20.418 20.418 21.75 18 21.75ZM12 3.74899C11.565 3.74899 11.131 3.87501 10.752 4.12801L4.52905 8.276C4.04105 8.601 3.75 9.14599 3.75 9.73199V18C3.75 19.577 4.423 20.25 6 20.25H18C19.577 20.25 20.25 19.577 20.25 18V9.73199C20.25 9.14599 19.9589 8.601 19.4709 8.276L13.248 4.12801C12.869 3.87501 12.435 3.74899 12 3.74899ZM12.8569 14.94L17.4409 11.606C17.7759 11.362 17.85 10.893 17.606 10.558C17.363 10.224 16.8961 10.148 16.5581 10.393L11.9751 13.726C11.9091 13.774 11.8231 13.774 11.7581 13.727L7.17407 10.393C6.83707 10.149 6.36798 10.224 6.12598 10.558C5.88198 10.893 5.95602 11.362 6.29102 11.606L10.875 14.94C11.171 15.155 11.518 15.263 11.865 15.263C12.213 15.263 12.5609 15.156 12.8569 14.94Z" fill="currentColor"/>
</svg>

<svg xmlns="http://www.w3.org/2000/svg" width="24" height="24" fill="none"><path fill="currentColor" d="M18 21.75H6c-2.418 0-3.75-1.332-3.75-3.75V9.732c0-1.089.541-2.1 1.447-2.704L9.92 2.88a3.742 3.742 0 0 1 4.16 0l6.223 4.148a3.243 3.243 0 0 1 1.447 2.704V18c0 2.418-1.332 3.75-3.75 3.75ZM12 3.749c-.435 0-.869.126-1.248.379L4.529 8.276c-.488.325-.779.87-.779 1.456V18c0 1.577.673 2.25 2.25 2.25h12c1.577 0 2.25-.673 2.25-2.25V9.732c0-.586-.291-1.131-.78-1.456l-6.222-4.148A2.243 2.243 0 0 0 12 3.749Zm.857 11.191 4.584-3.334a.75.75 0 1 0-.883-1.213l-4.583 3.333a.183.183 0 0 1-.217.001l-4.584-3.334a.75.75 0 0 0-.883 1.213l4.584 3.334a1.682 1.682 0 0 0 1.982 0Z"/></svg>
